images/50626327.svg

<?xml version="1.0" encoding="UTF-8"?>
<svg xmlns="http://www.w3.org/2000/svg" xmlns:xlink="http://www.w3.org/1999/xlink" width="300pt" height="300pt" viewBox="0 0 300 300" version="1.1">
<defs>
<g>
<symbol overflow="visible" id="glyph0-0">
<path style="stroke:none;" d="M 0.546875 1.9375 L 0.546875 -7.75 L 6.046875 -7.75 L 6.046875 1.9375 Z M 1.171875 1.328125 L 5.4375 1.328125 L 5.4375 -7.140625 L 1.171875 -7.140625 Z M 1.171875 1.328125 "/>
</symbol>
<symbol overflow="visible" id="glyph0-1">
<path style="stroke:none;" d="M 5.890625 -7.75 L 5.890625 -6.703125 C 5.472656 -6.898438 5.082031 -7.046875 4.71875 -7.140625 C 4.351562 -7.234375 4 -7.28125 3.65625 -7.28125 C 3.070312 -7.28125 2.617188 -7.164062 2.296875 -6.9375 C 1.972656 -6.707031 1.8125 -6.382812 1.8125 -5.96875 C 1.8125 -5.613281 1.914062 -5.34375 2.125 -5.15625 C 2.34375 -4.976562 2.75 -4.832031 3.34375 -4.71875 L 4 -4.59375 C 4.8125 -4.4375 5.410156 -4.160156 5.796875 -3.765625 C 6.179688 -3.378906 6.375 -2.863281 6.375 -2.21875 C 6.375 -1.4375 6.113281 -0.84375 5.59375 -0.4375 C 5.070312 -0.0390625 4.304688 0.15625 3.296875 0.15625 C 2.921875 0.15625 2.515625 0.109375 2.078125 0.015625 C 1.648438 -0.0664062 1.207031 -0.191406 0.75 -0.359375 L 0.75 -1.46875 C 1.195312 -1.21875 1.628906 -1.03125 2.046875 -0.90625 C 2.472656 -0.78125 2.890625 -0.71875 3.296875 -0.71875 C 3.921875 -0.71875 4.398438 -0.835938 4.734375 -1.078125 C 5.066406 -1.328125 5.234375 -1.675781 5.234375 -2.125 C 5.234375 -2.519531 5.113281 -2.828125 4.875 -3.046875 C 4.632812 -3.273438 4.238281 -3.445312 3.6875 -3.5625 L 3.03125 -3.6875 C 2.21875 -3.84375 1.628906 -4.09375 1.265625 -4.4375 C 0.898438 -4.78125 0.71875 -5.257812 0.71875 -5.875 C 0.71875 -6.582031 0.96875 -7.140625 1.46875 -7.546875 C 1.96875 -7.960938 2.660156 -8.171875 3.546875 -8.171875 C 3.921875 -8.171875 4.300781 -8.132812 4.6875 -8.0625 C 5.082031 -7.988281 5.484375 -7.882812 5.890625 -7.75 Z M 5.890625 -7.75 "/>
</symbol>
<symbol overflow="visible" id="glyph0-2">
<path style="stroke:none;" d="M 1.078125 -8.015625 L 2.546875 -8.015625 L 6.09375 -1.3125 L 6.09375 -8.015625 L 7.15625 -8.015625 L 7.15625 0 L 5.6875 0 L 2.125 -6.703125 L 2.125 0 L 1.078125 0 Z M 1.078125 -8.015625 "/>
</symbol>
<symbol overflow="visible" id="glyph0-3">
<path style="stroke:none;" d="M 1.078125 -8.015625 L 2.171875 -8.015625 L 2.171875 -4.734375 L 6.109375 -4.734375 L 6.109375 -8.015625 L 7.1875 -8.015625 L 7.1875 0 L 6.109375 0 L 6.109375 -3.8125 L 2.171875 -3.8125 L 2.171875 0 L 1.078125 0 Z M 1.078125 -8.015625 "/>
</symbol>
<symbol overflow="visible" id="glyph0-4">
<path style="stroke:none;" d="M 4.328125 -7.28125 C 3.546875 -7.28125 2.921875 -6.984375 2.453125 -6.390625 C 1.992188 -5.804688 1.765625 -5.007812 1.765625 -4 C 1.765625 -2.988281 1.992188 -2.1875 2.453125 -1.59375 C 2.921875 -1.007812 3.546875 -0.71875 4.328125 -0.71875 C 5.117188 -0.71875 5.742188 -1.007812 6.203125 -1.59375 C 6.660156 -2.1875 6.890625 -2.988281 6.890625 -4 C 6.890625 -5.007812 6.660156 -5.804688 6.203125 -6.390625 C 5.742188 -6.984375 5.117188 -7.28125 4.328125 -7.28125 Z M 4.328125 -8.171875 C 5.453125 -8.171875 6.351562 -7.789062 7.03125 -7.03125 C 7.707031 -6.28125 8.046875 -5.269531 8.046875 -4 C 8.046875 -2.738281 7.707031 -1.726562 7.03125 -0.96875 C 6.351562 -0.21875 5.453125 0.15625 4.328125 0.15625 C 3.203125 0.15625 2.300781 -0.21875 1.625 -0.96875 C 0.957031 -1.71875 0.625 -2.726562 0.625 -4 C 0.625 -5.269531 0.957031 -6.28125 1.625 -7.03125 C 2.300781 -7.789062 3.203125 -8.171875 4.328125 -8.171875 Z M 4.328125 -8.171875 "/>
</symbol>
</g>
</defs>
<g id="surface25609">
<rect x="0" y="0" width="300" height="300" style="fill:rgb(100%,100%,100%);fill-opacity:1;stroke:none;"/>
<path style="fill:none;stroke-width:1.2;stroke-linecap:butt;stroke-linejoin:miter;stroke:rgb(80%,80%,0%);stroke-opacity:1;stroke-miterlimit:10;" d="M 104.648438 89.601562 L 91.898438 84.9375 "/>
<path style="fill:none;stroke-width:1.2;stroke-linecap:butt;stroke-linejoin:miter;stroke:rgb(0%,0%,0%);stroke-opacity:1;stroke-miterlimit:10;" d="M 91.898438 84.9375 L 79.144531 80.273438 "/>
<path style="fill:none;stroke-width:1.2;stroke-linecap:butt;stroke-linejoin:miter;stroke:rgb(0%,0%,0%);stroke-opacity:1;stroke-miterlimit:10;" d="M 103.660156 116.742188 L 104.15625 103.171875 "/>
<path style="fill:none;stroke-width:1.2;stroke-linecap:butt;stroke-linejoin:miter;stroke:rgb(80%,80%,0%);stroke-opacity:1;stroke-miterlimit:10;" d="M 104.15625 103.171875 L 104.648438 89.601562 "/>
<path style=" stroke:none;fill-rule:nonzero;fill:rgb(100%,100%,100%);fill-opacity:1;" d="M 101.648438 83.101562 L 108.648438 83.101562 L 108.648438 96.101562 L 101.648438 96.101562 Z M 101.648438 83.101562 "/>
<g style="fill:rgb(80%,80%,0%);fill-opacity:1;">
  <use xlink:href="#glyph0-1" x="101.648438" y="93.00293"/>
</g>
<path style="fill:none;stroke-width:1.2;stroke-linecap:butt;stroke-linejoin:miter;stroke:rgb(0%,0%,0%);stroke-opacity:1;stroke-miterlimit:10;" d="M 79.144531 80.273438 L 62.390625 101.648438 "/>
<path style="fill:none;stroke-width:1.2;stroke-linecap:butt;stroke-linejoin:miter;stroke:rgb(0%,0%,0%);stroke-opacity:1;stroke-miterlimit:10;" d="M 82.5 86.355469 L 69.09375 103.453125 "/>
<path style="fill:none;stroke-width:1.2;stroke-linecap:butt;stroke-linejoin:miter;stroke:rgb(0%,0%,0%);stroke-opacity:1;stroke-miterlimit:10;" d="M 62.390625 101.648438 L 35.25 100.660156 "/>
<path style="fill:none;stroke-width:1.2;stroke-linecap:butt;stroke-linejoin:miter;stroke:rgb(0%,0%,0%);stroke-opacity:1;stroke-miterlimit:10;" d="M 62.390625 101.648438 L 77.542969 124.1875 "/>
<path style="fill:none;stroke-width:1.2;stroke-linecap:butt;stroke-linejoin:miter;stroke:rgb(0%,0%,0%);stroke-opacity:1;stroke-miterlimit:10;" d="M 77.542969 124.1875 L 68.214844 149.695312 "/>
<path style="fill:none;stroke-width:1.2;stroke-linecap:butt;stroke-linejoin:miter;stroke:rgb(0%,0%,0%);stroke-opacity:1;stroke-miterlimit:10;" d="M 77.542969 124.1875 L 103.660156 116.742188 "/>
<path style="fill:none;stroke-width:1.2;stroke-linecap:butt;stroke-linejoin:miter;stroke:rgb(0%,0%,0%);stroke-opacity:1;stroke-miterlimit:10;" d="M 78.402344 117.296875 L 99.296875 111.34375 "/>
<path style="fill:none;stroke-width:1.2;stroke-linecap:butt;stroke-linejoin:miter;stroke:rgb(0%,0%,0%);stroke-opacity:1;stroke-miterlimit:10;" d="M 68.214844 149.695312 L 75.789062 160.964844 "/>
<path style="fill:none;stroke-width:1.2;stroke-linecap:butt;stroke-linejoin:miter;stroke:rgb(0%,0%,100%);stroke-opacity:1;stroke-miterlimit:10;" d="M 75.789062 160.964844 L 83.363281 172.234375 "/>
<path style="fill:none;stroke-width:1.2;stroke-linecap:butt;stroke-linejoin:miter;stroke:rgb(0%,0%,100%);stroke-opacity:1;stroke-miterlimit:10;" d="M 42.09375 157.140625 L 55.15625 153.417969 "/>
<path style="fill:none;stroke-width:1.2;stroke-linecap:butt;stroke-linejoin:miter;stroke:rgb(0%,0%,0%);stroke-opacity:1;stroke-miterlimit:10;" d="M 55.15625 153.417969 L 68.214844 149.695312 "/>
<path style="fill:none;stroke-width:1.2;stroke-linecap:butt;stroke-linejoin:miter;stroke:rgb(0%,0%,100%);stroke-opacity:1;stroke-miterlimit:10;" d="M 46.460938 162.539062 L 56.90625 159.5625 "/>
<path style="fill:none;stroke-width:1.2;stroke-linecap:butt;stroke-linejoin:miter;stroke:rgb(0%,0%,0%);stroke-opacity:1;stroke-miterlimit:10;" d="M 56.90625 159.5625 L 67.351562 156.582031 "/>
<path style="fill:none;stroke-width:1.2;stroke-linecap:butt;stroke-linejoin:miter;stroke:rgb(0%,0%,100%);stroke-opacity:1;stroke-miterlimit:10;" d="M 83.363281 172.234375 L 74.988281 182.921875 "/>
<path style="fill:none;stroke-width:1.2;stroke-linecap:butt;stroke-linejoin:miter;stroke:rgb(0%,0%,0%);stroke-opacity:1;stroke-miterlimit:10;" d="M 74.988281 182.921875 L 66.613281 193.609375 "/>
<path style=" stroke:none;fill-rule:nonzero;fill:rgb(100%,100%,100%);fill-opacity:1;" d="M 75.363281 165.734375 L 92.363281 165.734375 L 92.363281 178.734375 L 75.363281 178.734375 Z M 75.363281 165.734375 "/>
<g style="fill:rgb(0%,0%,100%);fill-opacity:1;">
  <use xlink:href="#glyph0-2" x="75.363281" y="175.635742"/>
  <use xlink:href="#glyph0-3" x="83.34668" y="175.635742"/>
</g>
<path style="fill:none;stroke-width:1.2;stroke-linecap:butt;stroke-linejoin:miter;stroke:rgb(0%,0%,0%);stroke-opacity:1;stroke-miterlimit:10;" d="M 66.613281 193.609375 L 53.859375 188.945312 "/>
<path style="fill:none;stroke-width:1.2;stroke-linecap:butt;stroke-linejoin:miter;stroke:rgb(0%,0%,100%);stroke-opacity:1;stroke-miterlimit:10;" d="M 53.859375 188.945312 L 41.105469 184.28125 "/>
<path style="fill:none;stroke-width:1.2;stroke-linecap:butt;stroke-linejoin:miter;stroke:rgb(0%,0%,0%);stroke-opacity:1;stroke-miterlimit:10;" d="M 66.253906 186.671875 L 56.054688 182.941406 "/>
<path style="fill:none;stroke-width:1.2;stroke-linecap:butt;stroke-linejoin:miter;stroke:rgb(0%,0%,100%);stroke-opacity:1;stroke-miterlimit:10;" d="M 56.054688 182.941406 L 45.851562 179.210938 "/>
<path style="fill:none;stroke-width:1.2;stroke-linecap:butt;stroke-linejoin:miter;stroke:rgb(0%,0%,0%);stroke-opacity:1;stroke-miterlimit:10;" d="M 66.613281 193.609375 L 74.054688 219.726562 "/>
<path style="fill:none;stroke-width:1.2;stroke-linecap:butt;stroke-linejoin:miter;stroke:rgb(0%,0%,100%);stroke-opacity:1;stroke-miterlimit:10;" d="M 41.105469 184.28125 L 42.09375 157.140625 "/>
<path style=" stroke:none;fill-rule:nonzero;fill:rgb(100%,100%,100%);fill-opacity:1;" d="M 37.105469 177.78125 L 45.105469 177.78125 L 45.105469 190.78125 L 37.105469 190.78125 Z M 37.105469 177.78125 "/>
<g style="fill:rgb(0%,0%,100%);fill-opacity:1;">
  <use xlink:href="#glyph0-2" x="37.105469" y="187.682617"/>
</g>
<path style=" stroke:none;fill-rule:nonzero;fill:rgb(100%,100%,100%);fill-opacity:1;" d="M 38.09375 150.640625 L 46.09375 150.640625 L 46.09375 163.640625 L 38.09375 163.640625 Z M 38.09375 150.640625 "/>
<g style="fill:rgb(0%,0%,100%);fill-opacity:1;">
  <use xlink:href="#glyph0-2" x="38.09375" y="160.541992"/>
</g>
<path style="fill:none;stroke-width:1.2;stroke-linecap:butt;stroke-linejoin:miter;stroke:rgb(0%,0%,0%);stroke-opacity:1;stroke-miterlimit:10;" d="M 103.660156 116.742188 L 114.347656 125.121094 "/>
<path style="fill:none;stroke-width:1.2;stroke-linecap:butt;stroke-linejoin:miter;stroke:rgb(0%,0%,100%);stroke-opacity:1;stroke-miterlimit:10;" d="M 114.347656 125.121094 L 125.035156 133.496094 "/>
<path style="fill:none;stroke-width:1.2;stroke-linecap:butt;stroke-linejoin:miter;stroke:rgb(0%,0%,100%);stroke-opacity:1;stroke-miterlimit:10;" d="M 125.035156 133.496094 L 137.632812 128.429688 "/>
<path style="fill:none;stroke-width:1.2;stroke-linecap:butt;stroke-linejoin:miter;stroke:rgb(0%,0%,0%);stroke-opacity:1;stroke-miterlimit:10;" d="M 137.632812 128.429688 L 150.230469 123.363281 "/>
<path style=" stroke:none;fill-rule:nonzero;fill:rgb(100%,100%,100%);fill-opacity:1;" d="M 117.035156 126.996094 L 134.035156 126.996094 L 134.035156 139.996094 L 117.035156 139.996094 Z M 117.035156 126.996094 "/>
<g style="fill:rgb(0%,0%,100%);fill-opacity:1;">
  <use xlink:href="#glyph0-2" x="117.035156" y="136.897461"/>
  <use xlink:href="#glyph0-3" x="125.018555" y="136.897461"/>
</g>
<path style="fill:none;stroke-width:1.2;stroke-linecap:butt;stroke-linejoin:miter;stroke:rgb(0%,0%,0%);stroke-opacity:1;stroke-miterlimit:10;" d="M 153.394531 123.8125 L 155.304688 110.367188 "/>
<path style="fill:none;stroke-width:1.2;stroke-linecap:butt;stroke-linejoin:miter;stroke:rgb(100%,0%,0%);stroke-opacity:1;stroke-miterlimit:10;" d="M 155.304688 110.367188 L 157.214844 96.921875 "/>
<path style="fill:none;stroke-width:1.2;stroke-linecap:butt;stroke-linejoin:miter;stroke:rgb(0%,0%,0%);stroke-opacity:1;stroke-miterlimit:10;" d="M 147.066406 122.914062 L 148.980469 109.46875 "/>
<path style="fill:none;stroke-width:1.2;stroke-linecap:butt;stroke-linejoin:miter;stroke:rgb(100%,0%,0%);stroke-opacity:1;stroke-miterlimit:10;" d="M 148.980469 109.46875 L 150.890625 96.023438 "/>
<path style="fill:none;stroke-width:1.2;stroke-linecap:butt;stroke-linejoin:miter;stroke:rgb(0%,0%,0%);stroke-opacity:1;stroke-miterlimit:10;" d="M 150.230469 123.363281 L 171.605469 140.117188 "/>
<path style=" stroke:none;fill-rule:nonzero;fill:rgb(100%,100%,100%);fill-opacity:1;" d="M 150.054688 89.972656 L 159.054688 89.972656 L 159.054688 102.972656 L 150.054688 102.972656 Z M 150.054688 89.972656 "/>
<g style="fill:rgb(100%,0%,0%);fill-opacity:1;">
  <use xlink:href="#glyph0-4" x="150.054688" y="99.874023"/>
</g>
<path style="fill:none;stroke-width:1.2;stroke-linecap:butt;stroke-linejoin:miter;stroke:rgb(0%,0%,0%);stroke-opacity:1;stroke-miterlimit:10;" d="M 171.605469 140.117188 L 196.804688 129.980469 "/>
<path style="fill:none;stroke-width:1.2;stroke-linecap:butt;stroke-linejoin:miter;stroke:rgb(0%,0%,0%);stroke-opacity:1;stroke-miterlimit:10;" d="M 196.804688 129.980469 L 218.179688 146.734375 "/>
<path style="fill:none;stroke-width:1.2;stroke-linecap:butt;stroke-linejoin:miter;stroke:rgb(0%,0%,0%);stroke-opacity:1;stroke-miterlimit:10;" d="M 200.625 103.09375 L 196.804688 129.980469 "/>
<path style="fill:none;stroke-width:1.2;stroke-linecap:butt;stroke-linejoin:miter;stroke:rgb(0%,0%,0%);stroke-opacity:1;stroke-miterlimit:10;" d="M 206.570312 106.679688 L 203.511719 128.191406 "/>
<path style="fill:none;stroke-width:1.2;stroke-linecap:butt;stroke-linejoin:miter;stroke:rgb(0%,0%,0%);stroke-opacity:1;stroke-miterlimit:10;" d="M 218.179688 146.734375 L 216.265625 160.179688 "/>
<path style="fill:none;stroke-width:1.2;stroke-linecap:butt;stroke-linejoin:miter;stroke:rgb(0%,0%,100%);stroke-opacity:1;stroke-miterlimit:10;" d="M 216.265625 160.179688 L 214.355469 173.625 "/>
<path style="fill:none;stroke-width:1.2;stroke-linecap:butt;stroke-linejoin:miter;stroke:rgb(0%,0%,0%);stroke-opacity:1;stroke-miterlimit:10;" d="M 224.121094 150.324219 L 222.59375 161.078125 "/>
<path style="fill:none;stroke-width:1.2;stroke-linecap:butt;stroke-linejoin:miter;stroke:rgb(0%,0%,100%);stroke-opacity:1;stroke-miterlimit:10;" d="M 222.59375 161.078125 L 221.066406 171.832031 "/>
<path style="fill:none;stroke-width:1.2;stroke-linecap:butt;stroke-linejoin:miter;stroke:rgb(0%,0%,0%);stroke-opacity:1;stroke-miterlimit:10;" d="M 243.375 136.601562 L 218.179688 146.734375 "/>
<path style="fill:none;stroke-width:1.2;stroke-linecap:butt;stroke-linejoin:miter;stroke:rgb(0%,0%,100%);stroke-opacity:1;stroke-miterlimit:10;" d="M 214.355469 173.625 L 225.042969 182 "/>
<path style="fill:none;stroke-width:1.2;stroke-linecap:butt;stroke-linejoin:miter;stroke:rgb(0%,0%,0%);stroke-opacity:1;stroke-miterlimit:10;" d="M 225.042969 182 L 235.730469 190.378906 "/>
<path style=" stroke:none;fill-rule:nonzero;fill:rgb(100%,100%,100%);fill-opacity:1;" d="M 210.355469 167.125 L 218.355469 167.125 L 218.355469 180.125 L 210.355469 180.125 Z M 210.355469 167.125 "/>
<g style="fill:rgb(0%,0%,100%);fill-opacity:1;">
  <use xlink:href="#glyph0-2" x="210.355469" y="177.026367"/>
</g>
<path style="fill:none;stroke-width:1.2;stroke-linecap:butt;stroke-linejoin:miter;stroke:rgb(0%,0%,0%);stroke-opacity:1;stroke-miterlimit:10;" d="M 235.730469 190.378906 L 260.929688 180.242188 "/>
<path style="fill:none;stroke-width:1.2;stroke-linecap:butt;stroke-linejoin:miter;stroke:rgb(0%,0%,0%);stroke-opacity:1;stroke-miterlimit:10;" d="M 235.867188 183.433594 L 256.023438 175.328125 "/>
<path style="fill:none;stroke-width:1.2;stroke-linecap:butt;stroke-linejoin:miter;stroke:rgb(0%,0%,0%);stroke-opacity:1;stroke-miterlimit:10;" d="M 260.929688 180.242188 L 262.839844 166.796875 "/>
<path style="fill:none;stroke-width:1.2;stroke-linecap:butt;stroke-linejoin:miter;stroke:rgb(0%,0%,100%);stroke-opacity:1;stroke-miterlimit:10;" d="M 262.839844 166.796875 L 264.75 153.355469 "/>
<path style="fill:none;stroke-width:1.2;stroke-linecap:butt;stroke-linejoin:miter;stroke:rgb(0%,0%,100%);stroke-opacity:1;stroke-miterlimit:10;" d="M 264.75 153.355469 L 254.0625 144.976562 "/>
<path style="fill:none;stroke-width:1.2;stroke-linecap:butt;stroke-linejoin:miter;stroke:rgb(0%,0%,0%);stroke-opacity:1;stroke-miterlimit:10;" d="M 254.0625 144.976562 L 243.375 136.601562 "/>
<path style="fill:none;stroke-width:1.2;stroke-linecap:butt;stroke-linejoin:miter;stroke:rgb(0%,0%,100%);stroke-opacity:1;stroke-miterlimit:10;" d="M 258.671875 156.707031 L 250.121094 150.007812 "/>
<path style="fill:none;stroke-width:1.2;stroke-linecap:butt;stroke-linejoin:miter;stroke:rgb(0%,0%,0%);stroke-opacity:1;stroke-miterlimit:10;" d="M 250.121094 150.007812 L 241.570312 143.304688 "/>
<path style=" stroke:none;fill-rule:nonzero;fill:rgb(100%,100%,100%);fill-opacity:1;" d="M 260.75 146.855469 L 268.75 146.855469 L 268.75 159.855469 L 260.75 159.855469 Z M 260.75 146.855469 "/>
<g style="fill:rgb(0%,0%,100%);fill-opacity:1;">
  <use xlink:href="#glyph0-2" x="260.75" y="156.756836"/>
</g>
<path style="fill:none;stroke-width:1.2;stroke-linecap:butt;stroke-linejoin:miter;stroke:rgb(0%,0%,0%);stroke-opacity:1;stroke-miterlimit:10;" d="M 243.375 136.601562 L 247.195312 109.710938 "/>
<path style="fill:none;stroke-width:1.2;stroke-linecap:butt;stroke-linejoin:miter;stroke:rgb(0%,0%,0%);stroke-opacity:1;stroke-miterlimit:10;" d="M 247.195312 109.710938 L 225.820312 92.957031 "/>
<path style="fill:none;stroke-width:1.2;stroke-linecap:butt;stroke-linejoin:miter;stroke:rgb(0%,0%,0%);stroke-opacity:1;stroke-miterlimit:10;" d="M 241.117188 113.066406 L 224.015625 99.664062 "/>
<path style="fill:none;stroke-width:1.2;stroke-linecap:butt;stroke-linejoin:miter;stroke:rgb(0%,0%,0%);stroke-opacity:1;stroke-miterlimit:10;" d="M 225.820312 92.957031 L 200.625 103.09375 "/>
</g>
</svg>

<svg xmlns="http://www.w3.org/2000/svg" xmlns:xlink="http://www.w3.org/1999/xlink" width="300pt" height="300pt" viewBox="0 0 300 300"><defs><symbol overflow="visible"><path d="M.547 1.938V-7.75h5.5v9.688zm.625-.61h4.266v-8.47H1.171zm0 0"/></symbol><symbol overflow="visible" id="a"><path d="M5.89-7.75v1.047c-.417-.195-.808-.344-1.17-.438-.368-.094-.72-.14-1.064-.14-.586 0-1.04.116-1.36.343-.323.23-.483.554-.483.968 0 .357.1.626.312.814.22.18.625.324 1.22.437L4-4.593c.813.157 1.41.434 1.797.828.383.387.578.903.578 1.547 0 .783-.262 1.376-.78 1.783-.525.398-1.29.593-2.298.593-.375 0-.78-.047-1.22-.14C1.648-.066 1.208-.19.75-.36v-1.11c.445.25.88.44 1.297.564.426.125.844.187 1.25.187.625 0 1.1-.116 1.437-.358.332-.25.5-.598.5-1.047 0-.395-.12-.703-.36-.922-.24-.226-.636-.398-1.186-.515l-.657-.126c-.81-.156-1.4-.406-1.764-.75C.898-4.78.72-5.258.72-5.875c0-.707.25-1.266.75-1.672.5-.414 1.19-.625 2.077-.625.375 0 .754.04 1.14.11.395.074.797.18 1.204.312zm0 0"/></symbol><symbol overflow="visible" id="b"><path d="M1.078-8.016h1.47l3.546 6.704v-6.704h1.062V0H5.688L2.124-6.703V0H1.078zm0 0"/></symbol><symbol overflow="visible" id="c"><path d="M1.078-8.016h1.094v3.282H6.11v-3.282h1.077V0H6.11v-3.813H2.17V0H1.078zm0 0"/></symbol><symbol overflow="visible" id="d"><path d="M4.328-7.28c-.78 0-1.406.296-1.875.89-.46.585-.687 1.382-.687 2.39 0 1.012.226 1.813.687 2.406.47.586 1.094.875 1.875.875.79 0 1.414-.288 1.875-.874.457-.593.688-1.394.688-2.406 0-1.008-.23-1.805-.687-2.39-.46-.594-1.086-.89-1.875-.89zm0-.892c1.125 0 2.024.383 2.703 1.14C7.708-6.28 8.048-5.27 8.048-4c0 1.262-.34 2.273-1.016 3.03C6.353-.22 5.454.157 4.33.157S2.3-.22 1.625-.97c-.668-.75-1-1.757-1-3.03 0-1.27.332-2.28 1-3.03.676-.76 1.578-1.142 2.703-1.142zm0 0"/></symbol></defs><g><path fill="#fff" d="M0 0h300v300H0z"/><path d="M104.648 89.602l-12.75-4.665" stroke-width="1.2" stroke="#cc0" stroke-miterlimit="10" fill="none"/><path d="M91.898 84.938l-12.753-4.665M103.66 116.742l.496-13.57" stroke-width="1.2" stroke="#000" stroke-miterlimit="10" fill="none"/><path d="M104.156 103.172l.492-13.57" stroke-width="1.2" stroke="#cc0" stroke-miterlimit="10" fill="none"/><path d="M101.648 83.102h7v13h-7zm0 0" fill="#fff"/><use xlink:href="#a" x="101.648" y="93.003" fill="#cc0"/><path d="M79.145 80.273L62.39 101.648M82.5 86.355l-13.406 17.098M62.39 101.648l-27.14-.988M62.39 101.648l15.153 22.54M77.543 124.188l-9.328 25.507M77.543 124.188l26.117-7.446M78.402 117.297l20.895-5.953M68.215 149.695l7.574 11.27" stroke-width="1.2" stroke="#000" stroke-miterlimit="10" fill="none"/><path d="M75.79 160.965l7.573 11.27M42.094 157.14l13.062-3.722" stroke-width="1.2" stroke="#00f" stroke-miterlimit="10" fill="none"/><path d="M55.156 153.418l13.06-3.723" stroke-width="1.2" stroke="#000" stroke-miterlimit="10" fill="none"/><path d="M46.46 162.54l10.446-2.977" stroke-width="1.2" stroke="#00f" stroke-miterlimit="10" fill="none"/><path d="M56.906 159.563l10.446-2.98" stroke-width="1.2" stroke="#000" stroke-miterlimit="10" fill="none"/><path d="M83.363 172.234l-8.375 10.688" stroke-width="1.2" stroke="#00f" stroke-miterlimit="10" fill="none"/><path d="M74.988 182.922l-8.375 10.687" stroke-width="1.2" stroke="#000" stroke-miterlimit="10" fill="none"/><path d="M75.363 165.734h17v13h-17zm0 0" fill="#fff"/><g fill="#00f"><use xlink:href="#b" x="75.363" y="175.636"/><use xlink:href="#c" x="83.347" y="175.636"/></g><path d="M66.613 193.61l-12.754-4.665" stroke-width="1.2" stroke="#000" stroke-miterlimit="10" fill="none"/><path d="M53.86 188.945l-12.755-4.664" stroke-width="1.2" stroke="#00f" stroke-miterlimit="10" fill="none"/><path d="M66.254 186.672l-10.2-3.73" stroke-width="1.2" stroke="#000" stroke-miterlimit="10" fill="none"/><path d="M56.055 182.94l-10.203-3.73" stroke-width="1.2" stroke="#00f" stroke-miterlimit="10" fill="none"/><path d="M66.613 193.61l7.442 26.117" stroke-width="1.2" stroke="#000" stroke-miterlimit="10" fill="none"/><path d="M41.105 184.28l.99-27.14" stroke-width="1.2" stroke="#00f" stroke-miterlimit="10" fill="none"/><path d="M37.105 177.78h8v13h-8zm0 0" fill="#fff"/><use xlink:href="#b" x="37.105" y="187.683" fill="#00f"/><path d="M38.094 150.64h8v13h-8zm0 0" fill="#fff"/><use xlink:href="#b" x="38.094" y="160.542" fill="#00f"/><path d="M103.66 116.742l10.688 8.38" stroke-width="1.2" stroke="#000" stroke-miterlimit="10" fill="none"/><path d="M114.348 125.12l10.687 8.376M125.035 133.496l12.598-5.066" stroke-width="1.2" stroke="#00f" stroke-miterlimit="10" fill="none"/><path d="M137.633 128.43l12.597-5.067" stroke-width="1.2" stroke="#000" stroke-miterlimit="10" fill="none"/><path d="M117.035 126.996h17v13h-17zm0 0" fill="#fff"/><g fill="#00f"><use xlink:href="#b" x="117.035" y="136.897"/><use xlink:href="#c" x="125.019" y="136.897"/></g><path d="M153.395 123.813l1.91-13.446" stroke-width="1.2" stroke="#000" stroke-miterlimit="10" fill="none"/><path d="M155.305 110.367l1.91-13.445" stroke-width="1.2" stroke="#f00" stroke-miterlimit="10" fill="none"/><path d="M147.066 122.914l1.914-13.445" stroke-width="1.2" stroke="#000" stroke-miterlimit="10" fill="none"/><path d="M148.98 109.47l1.91-13.447" stroke-width="1.2" stroke="#f00" stroke-miterlimit="10" fill="none"/><path d="M150.23 123.363l21.375 16.754" stroke-width="1.2" stroke="#000" stroke-miterlimit="10" fill="none"/><path d="M150.055 89.973h9v13h-9zm0 0" fill="#fff"/><use xlink:href="#d" x="150.055" y="99.874" fill="#f00"/><path d="M171.605 140.117l25.2-10.137M196.805 129.98l21.375 16.754M200.625 103.094l-3.82 26.886M206.57 106.68l-3.058 21.51M218.18 146.734l-1.914 13.446" stroke-width="1.2" stroke="#000" stroke-miterlimit="10" fill="none"/><path d="M216.266 160.18l-1.91 13.445" stroke-width="1.2" stroke="#00f" stroke-miterlimit="10" fill="none"/><path d="M224.12 150.324l-1.526 10.754" stroke-width="1.2" stroke="#000" stroke-miterlimit="10" fill="none"/><path d="M222.594 161.078l-1.528 10.754" stroke-width="1.2" stroke="#00f" stroke-miterlimit="10" fill="none"/><path d="M243.375 136.602l-25.195 10.132" stroke-width="1.2" stroke="#000" stroke-miterlimit="10" fill="none"/><path d="M214.355 173.625L225.043 182" stroke-width="1.2" stroke="#00f" stroke-miterlimit="10" fill="none"/><path d="M225.043 182l10.687 8.38" stroke-width="1.2" stroke="#000" stroke-miterlimit="10" fill="none"/><path d="M210.355 167.125h8v13h-8zm0 0" fill="#fff"/><use xlink:href="#b" x="210.355" y="177.026" fill="#00f"/><path d="M235.73 190.38l25.2-10.138M235.867 183.434l20.156-8.106M260.93 180.242l1.91-13.445" stroke-width="1.2" stroke="#000" stroke-miterlimit="10" fill="none"/><path d="M262.84 166.797l1.91-13.442M264.75 153.355l-10.688-8.378" stroke-width="1.2" stroke="#00f" stroke-miterlimit="10" fill="none"/><path d="M254.063 144.977l-10.688-8.375" stroke-width="1.2" stroke="#000" stroke-miterlimit="10" fill="none"/><path d="M258.672 156.707l-8.55-6.7" stroke-width="1.2" stroke="#00f" stroke-miterlimit="10" fill="none"/><path d="M250.12 150.008l-8.55-6.703" stroke-width="1.2" stroke="#000" stroke-miterlimit="10" fill="none"/><path d="M260.75 146.855h8v13h-8zm0 0" fill="#fff"/><use xlink:href="#b" x="260.75" y="156.757" fill="#00f"/><path d="M243.375 136.602l3.82-26.89M247.195 109.71L225.82 92.958M241.117 113.066l-17.1-13.402M225.82 92.957l-25.195 10.137" stroke-width="1.2" stroke="#000" stroke-miterlimit="10" fill="none"/></g></svg>
